Sources/FrostedUI/Resources/Icons.xcassets/command32.imageset/command-32.svg

<svg width="32" height="32" viewBox="0 0 32 32" fill="none" xmlns="http://www.w3.org/2000/svg" data-fui-icon="true">
  <path
    d="M23.75 3C26.6495 3 29 5.35051 29 8.25C29 11.1495 26.6495 13.5 23.75 13.5H20V18.5H23.75C26.6495 18.5 29 20.8505 29 23.75C29 26.6495 26.6495 29 23.75 29C20.8505 29 18.5 26.6495 18.5 23.75V20H13.5V23.75C13.5 26.6495 11.1495 29 8.25 29C5.35051 29 3 26.6495 3 23.75C3 20.8505 5.35051 18.5 8.25 18.5H12V13.5H8.25C5.35051 13.5 3 11.1495 3 8.25C3 5.35051 5.35051 3 8.25 3C11.1495 3 13.5 5.35051 13.5 8.25V12H18.5V8.25C18.5 5.35052 20.8505 3.00002 23.75 3ZM8.25 20C6.17893 20 4.5 21.6789 4.5 23.75C4.5 25.8211 6.17893 27.5 8.25 27.5C10.3211 27.5 12 25.8211 12 23.75V20H8.25ZM20 23.75C20 25.8211 21.6789 27.5 23.75 27.5C25.8211 27.5 27.5 25.8211 27.5 23.75C27.5 21.6789 25.8211 20 23.75 20H20V23.75ZM13.5 18.5H18.5V13.5H13.5V18.5ZM8.25 4.5C6.17893 4.5 4.5 6.17893 4.5 8.25C4.5 10.3211 6.17893 12 8.25 12H12V8.25C12 6.17893 10.3211 4.5 8.25 4.5ZM23.75 4.5C21.6789 4.50002 20 6.17894 20 8.25V12H23.75C25.8211 12 27.5 10.3211 27.5 8.25C27.5 6.17893 25.8211 4.5 23.75 4.5Z"
    fill="currentColor"
  />
</svg>

<svg xmlns="http://www.w3.org/2000/svg" width="32" height="32" fill="none" data-fui-icon="true" viewBox="0 0 32 32"><path fill="currentColor" d="M23.75 3a5.25 5.25 0 1 1 0 10.5H20v5h3.75a5.25 5.25 0 1 1-5.25 5.25V20h-5v3.75a5.25 5.25 0 1 1-5.25-5.25H12v-5H8.25a5.25 5.25 0 1 1 5.25-5.25V12h5V8.25c0-2.9 2.35-5.25 5.25-5.25M8.25 20A3.75 3.75 0 1 0 12 23.75V20zM20 23.75A3.75 3.75 0 1 0 23.75 20H20zm-6.5-5.25h5v-5h-5zm-5.25-14a3.75 3.75 0 1 0 0 7.5H12V8.25A3.75 3.75 0 0 0 8.25 4.5m15.5 0A3.75 3.75 0 0 0 20 8.25V12h3.75a3.75 3.75 0 1 0 0-7.5"/></svg>
